images/sheet/details/jump.svg

<?xml version="1.0" encoding="utf-8"?><!-- Uploaded to: SVG Repo, www.svgrepo.com, Generator: SVG Repo Mixer Tools -->
<svg width="800px" height="800px" viewBox="80 20 350 350" xmlns="http://www.w3.org/2000/svg"><path fill="#741a89" d="M295.883 20.338c-14.656-.098-30.21 16.152-37.057 29.625-8.19 16.117-14.16 43.37-5.826 58.734l-13.63 6.483c-5.76-3.823-46.376-13.28-63.386-10.748-27.583 6.662-52.99 20.944-78.793 33.84l12.165 26.667c23.13-10.42 42.92-28.464 69.89-30.424 21.533-1.566 34.608 11.535 50.786 18.552-1.066 68.896-16.84 101.175-54.03 160.44-26.528 16.792-61.213 17.727-94.11 22.693l12.62 28.323c40.826-5.42 80.217-10.064 108.947-26.65 58.103-41.767 85.666-62.308 148.543-92.38 30.3 9.43 41.237 39.108 55.03 61.048l24.163-22.63c-12.5-27.36-44.15-61.68-79.193-84.066-22.694 7.043-44.088 17.01-64.133 30.01 6.64-24.67 6.65-44.777-1.678-69.448 18.79 6.873 36.892 10.287 54.28 10.137 27.537-20.4 42.684-46.306 62.66-70.066L384 84.564c-16.46 18.927-25.97 37.853-49.404 56.78-16.322-1.3-32.255-8.444-48.114-16.69l-2.732-7.615c15.41-6.64 30.163-24.084 35.334-38.8 6.553-18.647 1.573-50.056-17.004-56.804-2.03-.738-4.103-1.084-6.197-1.098zM18 384v110h142V384H18zm334 0v110h142V384H352z"/></svg>

<?xml version="1.0" encoding="utf-8"?>
<svg viewBox="3.9626 6.148 492.184 484.9739" width="492.184" height="484.9739" xmlns="http://www.w3.org/2000/svg">
  <g class="" transform="matrix(1.409045934677124, 0, 0, 1.409045934677124, -111.42696380615234, -22.50773811340332)" style="">
    <g>
      <path d="M295.883 20.338C281.227 20.24 265.673 36.49 258.826 49.963C250.636 66.08 244.666 93.333 253 108.697L239.37 115.18C233.61 111.357 192.994 101.9 175.984 104.432C148.401 111.094 122.994 125.376 97.191 138.272L109.356 164.939C132.486 154.519 152.276 136.475 179.246 134.515C200.779 132.949 213.854 146.05 230.032 153.067C228.966 221.963 213.192 254.242 176.002 313.507C149.474 330.299 114.789 331.234 81.892 336.2L94.512 364.523C135.338 359.103 174.729 354.459 203.459 337.873C261.562 296.106 289.125 275.565 352.002 245.493C382.302 254.923 393.239 284.601 407.032 306.541L431.195 283.911C418.695 256.551 387.045 222.231 352.002 199.845C329.308 206.888 307.914 216.855 287.869 229.855C294.509 205.185 294.519 185.078 286.191 160.407C304.981 167.28 323.083 170.694 340.471 170.544C368.008 150.144 383.155 124.238 403.131 100.478L384 84.564C367.54 103.491 358.03 122.417 334.596 141.344C318.274 140.044 302.341 132.9 286.482 124.654L283.75 117.039C299.16 110.399 313.913 92.955 319.084 78.239C325.637 59.592 320.657 28.183 302.08 21.435C300.05 20.697 297.977 20.351 295.883 20.337Z" fill="#741a89"/>
    </g>
  </g>
</svg>
